X:163
T:Hargaluten
M:3/4
L:1/8
K:GMinor
||:"Gmi"d2 de dc | cB BA GB | "D"BA AD ^FA | "Gmi"G^F GA Bc
| "Gmi" d2 de dc | cB BA GB | "D"BA AD ^FA| "Gmi" G2 G4
:||:"Bb" Bc d2 B2 | "Cmi" cd ed c2 | "F" f2 fg fe | "Bb" e2 d4
|  "Bb" Bc d2 B2 | "Cmi" cd ed c2 | "F" f2 fg fe | "Bb" e2 d3 ^c
| "D7" d2 de dc | "Gmi" cB BA GB | "D" BA AD ^FA | "Gmi" G^F GA Bc
| "Gmi" d2 de dc | cB BA GB | "D"BA AD ^FA| "Gmi" G2 G4
:||:"Gmi" G2 ^F2 G2 | "D7" A2 G2 A2 | "Gmi" Bc BA Bc | "D7" de dc BA
|   "Gmi" G2 ^F2 G2 | "D7" A2 G2 A2 | "Gmi" Bc BA Bc | "Gmi" d2 e2 "C7"=
e2
| "F" fe c2 (3cde | "Bb" dc B2 d2 | "Cmi"cB A2 "F"(3ABc | "Gmi" BA G4
| "Cmi" ge c2 (cde | "Gmi" dB G2 B2 | "D7" BA AD ^FA | "Gmi" G2 G4 :||
